apps/survey/app/public/meta/icon.svg

<svg width="24" height="24" viewBox="0 0 24 24" fill="none" xmlns="http://www.w3.org/2000/svg">
<rect width="24" height="24" fill="url(#paint0_linear)"/>
<path d="M18.5625 3.6H15.5V4.85996C15.4992 5.55556 14.912 6.11927 14.1874 6.12004H9.81255C9.08797 6.11927 8.50077 5.55556 8.49997 4.85996V3.6H5.43753C5.19587 3.6 5 3.78803 5 4.02003V19.98C5 20.212 5.19587 20.4 5.43753 20.4H18.5625C18.8041 20.4 19 20.212 19 19.98V4.02003C19 3.78803 18.8041 3.6 18.5625 3.6ZM10.9968 16.0769L9.24685 17.7569C9.07608 17.921 8.79931 17.9211 8.62841 17.7572L7.75322 16.917C7.58539 16.7501 7.59019 16.4841 7.76403 16.323C7.93346 16.1657 8.20236 16.1657 8.37179 16.323L8.9375 16.8661L10.3783 15.4831C10.5521 15.3218 10.829 15.3265 10.9968 15.4933C11.1605 15.6561 11.1605 15.9141 10.9968 16.0769ZM10.9968 12.7169L9.24685 14.3969C9.07608 14.561 8.79931 14.561 8.62841 14.3972L7.75322 13.557C7.58539 13.3901 7.59019 13.1242 7.76403 12.963C7.93346 12.8059 8.20223 12.8059 8.37179 12.963L8.9375 13.5061L10.3783 12.1231C10.5521 11.9619 10.829 11.9666 10.9968 12.1334C11.1605 12.2961 11.1605 12.5542 10.9968 12.7169ZM10.9968 9.35697L9.24685 11.037C9.07608 11.2009 8.79931 11.201 8.62841 11.0372L7.75322 10.1969C7.58539 10.0301 7.59019 9.76418 7.76403 9.60307C7.93346 9.44592 8.20223 9.44592 8.37179 9.60307L8.9375 10.1461L10.3783 8.76314C10.5521 8.60189 10.829 8.60651 10.9968 8.77339C11.1605 8.93617 11.1605 9.19419 10.9968 9.35697ZM15.9376 17.04H13.3125C13.0709 17.04 12.875 16.8519 12.875 16.62C12.875 16.388 13.0709 16.2 13.3125 16.2H15.9376C16.1791 16.2 16.375 16.388 16.375 16.62C16.375 16.8519 16.1791 17.04 15.9376 17.04ZM15.9376 13.6799H13.3125C13.0709 13.6799 12.875 13.4919 12.875 13.26C12.875 13.028 13.0709 12.84 13.3125 12.84H15.9376C16.1791 12.84 16.375 13.028 16.375 13.26C16.375 13.492 16.1791 13.6799 15.9376 13.6799ZM15.9376 10.3201H13.3125C13.0709 10.3201 12.875 10.1319 12.875 9.90005C12.875 9.66805 13.0709 9.48002 13.3125 9.48002H15.9376C16.1791 9.48002 16.375 9.66805 16.375 9.90005C16.375 10.1319 16.1791 10.3201 15.9376 10.3201Z" fill="white"/>
<path d="M14.1875 5.27999H9.81256C9.5709 5.27999 9.37503 5.09195 9.37503 4.85996V3.6H14.625V4.85996C14.625 5.09195 14.4291 5.27999 14.1875 5.27999Z" fill="white"/>
<path d="M18.5625 3.6H15.5V4.85996C15.4992 5.55556 14.912 6.11927 14.1874 6.12004H9.81255C9.08797 6.11927 8.50077 5.55556 8.49997 4.85996V3.6H5.43753C5.19587 3.6 5 3.78803 5 4.02003V19.98C5 20.212 5.19587 20.4 5.43753 20.4H18.5625C18.8041 20.4 19 20.212 19 19.98V4.02003C19 3.78803 18.8041 3.6 18.5625 3.6ZM10.9968 16.0769L9.24685 17.7569C9.07608 17.921 8.79931 17.9211 8.62841 17.7572L7.75322 16.917C7.58539 16.7501 7.59019 16.4841 7.76403 16.323C7.93346 16.1657 8.20236 16.1657 8.37179 16.323L8.9375 16.8661L10.3783 15.4831C10.5521 15.3218 10.829 15.3265 10.9968 15.4933C11.1605 15.6561 11.1605 15.9141 10.9968 16.0769ZM10.9968 12.7169L9.24685 14.3969C9.07608 14.561 8.79931 14.561 8.62841 14.3972L7.75322 13.557C7.58539 13.3901 7.59019 13.1242 7.76403 12.963C7.93346 12.8059 8.20223 12.8059 8.37179 12.963L8.9375 13.5061L10.3783 12.1231C10.5521 11.9619 10.829 11.9666 10.9968 12.1334C11.1605 12.2961 11.1605 12.5542 10.9968 12.7169ZM10.9968 9.35697L9.24685 11.037C9.07608 11.2009 8.79931 11.201 8.62841 11.0372L7.75322 10.1969C7.58539 10.0301 7.59019 9.76418 7.76403 9.60307C7.93346 9.44592 8.20223 9.44592 8.37179 9.60307L8.9375 10.1461L10.3783 8.76314C10.5521 8.60189 10.829 8.60651 10.9968 8.77339C11.1605 8.93617 11.1605 9.19419 10.9968 9.35697ZM15.9376 17.04H13.3125C13.0709 17.04 12.875 16.8519 12.875 16.62C12.875 16.388 13.0709 16.2 13.3125 16.2H15.9376C16.1791 16.2 16.375 16.388 16.375 16.62C16.375 16.8519 16.1791 17.04 15.9376 17.04ZM15.9376 13.6799H13.3125C13.0709 13.6799 12.875 13.4919 12.875 13.26C12.875 13.028 13.0709 12.84 13.3125 12.84H15.9376C16.1791 12.84 16.375 13.028 16.375 13.26C16.375 13.492 16.1791 13.6799 15.9376 13.6799ZM15.9376 10.3201H13.3125C13.0709 10.3201 12.875 10.1319 12.875 9.90005C12.875 9.66805 13.0709 9.48002 13.3125 9.48002H15.9376C16.1791 9.48002 16.375 9.66805 16.375 9.90005C16.375 10.1319 16.1791 10.3201 15.9376 10.3201Z" fill="white"/>
<defs>
<linearGradient id="paint0_linear" x1="9.21429" y1="5.14286" x2="25.5" y2="27.2143" gradientUnits="userSpaceOnUse">
<stop stop-color="#D461A6"/>
<stop offset="1" stop-color="#AF4CE3"/>
</linearGradient>
</defs>
</svg>

<svg width="24" height="24" fill="none" xmlns="http://www.w3.org/2000/svg"><path fill="url(#paint0_linear)" d="M0 0h24v24H0z"/><path d="M18.563 3.6H15.5v1.26c0 .696-.588 1.26-1.313 1.26H9.813c-.725 0-1.312-.564-1.313-1.26V3.6H5.438A.429.429 0 0 0 5 4.02v15.96c0 .232.196.42.438.42h13.125a.429.429 0 0 0 .437-.42V4.02a.429.429 0 0 0-.438-.42zm-7.566 12.477l-1.75 1.68a.45.45 0 0 1-.619 0l-.875-.84a.408.408 0 0 1 .011-.594.45.45 0 0 1 .608 0l.566.543 1.44-1.383a.45.45 0 0 1 .619.01.408.408 0 0 1 0 .584zm0-3.36l-1.75 1.68a.45.45 0 0 1-.619 0l-.875-.84a.408.408 0 0 1 .011-.594.45.45 0 0 1 .608 0l.566.543 1.44-1.383a.45.45 0 0 1 .619.01.408.408 0 0 1 0 .584zm0-3.36l-1.75 1.68a.45.45 0 0 1-.619 0l-.875-.84a.408.408 0 0 1 .011-.594.45.45 0 0 1 .608 0l.566.543 1.44-1.383a.45.45 0 0 1 .619.01.408.408 0 0 1 0 .584zm4.94 7.683h-2.624a.43.43 0 0 1-.438-.42c0-.232.196-.42.438-.42h2.625c.241 0 .437.188.437.42 0 .232-.196.42-.437.42zm0-3.36h-2.624a.429.429 0 0 1-.438-.42c0-.232.196-.42.438-.42h2.625c.241 0 .437.188.437.42 0 .232-.196.42-.437.42zm0-3.36h-2.624a.43.43 0 0 1-.438-.42c0-.232.196-.42.438-.42h2.625c.241 0 .437.188.437.42a.43.43 0 0 1-.437.42z" fill="#fff"/><path d="M14.188 5.28H9.813a.429.429 0 0 1-.438-.42V3.6h5.25v1.26c0 .232-.196.42-.438.42z" fill="#fff"/><path d="M18.563 3.6H15.5v1.26c0 .696-.588 1.26-1.313 1.26H9.813c-.725 0-1.312-.564-1.313-1.26V3.6H5.438A.429.429 0 0 0 5 4.02v15.96c0 .232.196.42.438.42h13.125a.429.429 0 0 0 .437-.42V4.02a.429.429 0 0 0-.438-.42zm-7.566 12.477l-1.75 1.68a.45.45 0 0 1-.619 0l-.875-.84a.408.408 0 0 1 .011-.594.45.45 0 0 1 .608 0l.566.543 1.44-1.383a.45.45 0 0 1 .619.01.408.408 0 0 1 0 .584zm0-3.36l-1.75 1.68a.45.45 0 0 1-.619 0l-.875-.84a.408.408 0 0 1 .011-.594.45.45 0 0 1 .608 0l.566.543 1.44-1.383a.45.45 0 0 1 .619.01.408.408 0 0 1 0 .584zm0-3.36l-1.75 1.68a.45.45 0 0 1-.619 0l-.875-.84a.408.408 0 0 1 .011-.594.45.45 0 0 1 .608 0l.566.543 1.44-1.383a.45.45 0 0 1 .619.01.408.408 0 0 1 0 .584zm4.94 7.683h-2.624a.43.43 0 0 1-.438-.42c0-.232.196-.42.438-.42h2.625c.241 0 .437.188.437.42 0 .232-.196.42-.437.42zm0-3.36h-2.624a.429.429 0 0 1-.438-.42c0-.232.196-.42.438-.42h2.625c.241 0 .437.188.437.42 0 .232-.196.42-.437.42zm0-3.36h-2.624a.43.43 0 0 1-.438-.42c0-.232.196-.42.438-.42h2.625c.241 0 .437.188.437.42a.43.43 0 0 1-.437.42z" fill="#fff"/><defs><linearGradient id="paint0_linear" x1="9.214" y1="5.143" x2="25.5" y2="27.214" gradientUnits="userSpaceOnUse"><stop stop-color="#D461A6"/><stop offset="1" stop-color="#AF4CE3"/></linearGradient></defs></svg>
